!!!OTL: Dessous ces rosiers blancs (3), S. 34
!!!id: T0104
**kern
*clefG2
*k[f#c#]
*D:
{8d
8d
8d
=1
8d
8f#
4.a
8a
=2
8b
8a
8g#
8a
8f#
8e
=3
4d}
8r
=4
{8d
8d
8d
=5
8d
8f#
4.a
8a
=6
8b
8a
8g#
8a
8f#
8e
=7
4d}
4r
=8
{8a
8g
=9
4.f#
8a
8dd
8dd
=10
4cc#}
4r
=11
{8g
8f#
=12
4.e
8e
8b
8b
=13
8a
8a}
4r
=14
{8f#
8e
=15
8d
8f#
8a
8f#
8e
8e
=16
4dd
8a
8f#
8g
8e
=17
4d}
8r
==
*-
!!!minrhy: 8
!!!meters: 3/4 ]  ZZ[5
!!!cut: Dessous ces rosiers blancs (3), S. 34
!!!reg: Luxemburg
!!!trd: Singendes Volk, Esch-Alzette 1937 posth.
!!!rhy1: XXX  XXX_.X  XXXXXX  X_0
!!!rhy2: XXX  XXX_.X  XXXXXX  X_0_
!!!key: T0104  08  D 3/4 ]  ZZ[5
!!!mod: ACHTTONSKALA DUR ?]  AMBITUS[8
!!!kad: 11751
!!!akz: 161_161_37_25_1+11_
!!!fot: 'a__a__b__c__d__
!!!for: 'a__av_b__bw_c__
!!!fok: '^__^__Va_Va_Sd_
!! PHRAS[AUFTAKTIG]
!!!fkt: "erz&auml;hlende Lieder"
!!!bem: ESCH/ALZETTE; gesungen von Frau Jules Meder 1922
!! THILL, Mathias:
!! PR[32] 2K[8] 2G[20] 3K[4] 3G[0] 4A[4] 4Ü[0] 5A[0] 6K[0] 6G[0]
!! 7K[0] 7G[0] 8A[0] MEHR[0] SI[36] ABS[25] SR[28] SP[8]
!! ST[6] 2k[4] 2g[12] 3k[12] 3g[4] 4d[0] 4ü[0] 5d[0] 6k[0] 6g[0]
!! 7k[0] 7g[0] 8d[0] mehr[0] si[32] dm[+4] sr[16] sp[16]
!! 1F[30] 2F[67] 3F[4] 4F[0] LF[0] 2P[0] 3P[0] 4P[0] TRI[0] DF[3] AB[27]
!! TF[0] U3K[0] U3[0] U4[0] U4Ü[0] U5[0] U6K[0] U6[0] U7K[0] U7[0]
!! N1[8] N2K[0] N2[15] N3K[0] N3[31] N4[15] N4Ü[0] N5[27] N6K[0] N6[4]
!!!n7k: 0] N7[0] O1[0] O2K[0] O2[0] O3K[0] O3[0] HÖ[0
!!!RNB: symbol: &auml;      = a umlaut  (UTF-8: Å„)
